svg/color/multiple.svg

<svg width="64" height="65" viewBox="0 0 64 65" fill="none" xmlns="http://www.w3.org/2000/svg">
<g clip-path="url(#clip0_24390_854)">
<rect y="0.303711" width="30.4762" height="30.4762" rx="15.2381" fill="#F7931A"/>
<rect x="0.5" y="0.803711" width="29.4762" height="29.4762" rx="14.7381" stroke="#070B14" stroke-opacity="0.15"/>
<path d="M21.9556 13.3707C22.2589 11.3429 20.7151 10.2528 18.6039 9.52566L19.2888 6.77875L17.6167 6.36209L16.95 9.03668C16.5104 8.92704 16.0589 8.82374 15.6103 8.72132L16.2818 6.02908L14.6107 5.61243L13.9255 8.35845C13.5617 8.27562 13.2044 8.19376 12.8578 8.10751L12.8597 8.09887L10.5538 7.52305L10.109 9.30899C10.109 9.30899 11.3496 9.59336 11.3234 9.61087C12.0005 9.77987 12.123 10.2281 12.1027 10.5834C11.4769 13.0936 10.8524 15.5981 10.2261 18.1086C10.1434 18.3144 9.93335 18.6231 9.45994 18.5059C9.4767 18.5301 8.24461 18.2026 8.24461 18.2026L7.41443 20.1166L9.59043 20.6591C9.99524 20.7606 10.3919 20.8668 10.7826 20.9667L10.0907 23.7451L11.7609 24.1618L12.4461 21.4128C12.9024 21.5367 13.3452 21.651 13.7787 21.7587L13.0957 24.4946L14.7679 24.9113L15.4598 22.1381C18.3111 22.6777 20.4551 22.4601 21.3575 19.8811C22.0847 17.8047 21.3213 16.607 19.8213 15.826C20.9138 15.574 21.7368 14.8554 21.9562 13.371L21.9557 13.3706L21.9556 13.3707ZM18.1352 18.728C17.6184 20.8044 14.1224 19.6819 12.9889 19.4005L13.9071 15.7195C15.0405 16.0025 18.6752 16.5625 18.1352 18.728ZM18.6523 13.3406C18.1809 15.2294 15.2711 14.2698 14.3272 14.0345L15.1597 10.6962C16.1036 10.9314 19.1434 11.3706 18.6525 13.3406H18.6523Z" fill="white"/>
</g>
<g clip-path="url(#clip1_24390_854)">
<g clip-path="url(#clip2_24390_854)">
<rect x="33.5238" y="0.303711" width="30.4762" height="30.4762" rx="15.2381" fill="white"/>
<path d="M48.7619 0.303711C45.7481 0.303711 42.802 1.19741 40.2961 2.87179C37.7902 4.54618 35.8371 6.92604 34.6837 9.71044C33.5304 12.4948 33.2286 15.5587 33.8166 18.5146C34.4046 21.4705 35.8559 24.1857 37.9869 26.3168C40.118 28.4479 42.8332 29.8991 45.7891 30.4871C48.745 31.0751 51.8089 30.7733 54.5933 29.62C57.3777 28.4666 59.7575 26.5135 61.4319 24.0076C63.1063 21.5017 64 18.5556 64 15.5418C64.0058 13.5465 63.6186 11.5696 62.8604 9.724C62.1022 7.87838 60.9879 6.20016 59.5812 4.78517C58.1744 3.37018 56.5027 2.24613 54.6615 1.4772C52.8203 0.708268 50.8457 0.309517 48.8505 0.303711H48.7619ZM49.0202 16.0584L47.4336 21.4083H55.9198C55.976 21.4063 56.032 21.4154 56.0847 21.4352C56.1374 21.4549 56.1857 21.4848 56.2268 21.5231C56.2679 21.5615 56.3011 21.6076 56.3243 21.6588C56.3476 21.71 56.3606 21.7653 56.3625 21.8215V21.9617L55.6246 24.5076C55.592 24.628 55.5195 24.7337 55.419 24.8075C55.3184 24.8812 55.1957 24.9186 55.0711 24.9134H42.0837L44.2606 17.4973L41.8254 18.2352L42.3789 16.538L44.814 15.8001L47.8764 5.39537C47.9101 5.27566 47.9829 5.17066 48.0832 5.09711C48.1835 5.02356 48.3055 4.98569 48.4298 4.98952H51.7136C51.7698 4.98755 51.8259 4.99667 51.8785 5.01638C51.9312 5.03609 51.9795 5.06598 52.0206 5.10436C52.0617 5.14274 52.0949 5.18885 52.1182 5.24005C52.1415 5.29125 52.1544 5.34654 52.1563 5.40275V5.54296L49.5736 14.3242L52.0088 13.5863L51.4922 15.3573L49.0202 16.0584Z" fill="#345D9D"/>
</g>
<rect x="34.0238" y="0.803711" width="29.4762" height="29.4762" rx="14.7381" stroke="#070B14" stroke-opacity="0.15"/>
</g>
<g clip-path="url(#clip3_24390_854)">
<rect y="33.8275" width="30.4762" height="30.4762" rx="15.2381" fill="#627EEA"/>
<rect x="0.5" y="34.3275" width="29.4762" height="29.4762" rx="14.7381" stroke="#070B14" stroke-opacity="0.15"/>
<path d="M15.7124 37.6371V46.0847L22.8524 49.2752L15.7124 37.6371Z" fill="white" fill-opacity="0.602"/>
<path d="M15.7125 37.6371L8.57153 49.2752L15.7125 46.0847V37.6371Z" fill="white"/>
<path d="M15.7124 54.7495V60.4895L22.8572 50.6047L15.7124 54.7495Z" fill="white" fill-opacity="0.602"/>
<path d="M15.7125 60.4895V54.7485L8.57153 50.6047L15.7125 60.4895Z" fill="white"/>
<path d="M15.7124 53.421L22.8524 49.2752L15.7124 46.0867V53.421Z" fill="white" fill-opacity="0.2"/>
<path d="M8.57153 49.2752L15.7125 53.421V46.0867L8.57153 49.2752Z" fill="white" fill-opacity="0.602"/>
</g>
<g clip-path="url(#clip4_24390_854)">
<rect x="33.5238" y="33.8275" width="30.4762" height="30.4762" rx="15.2381" fill="black"/>
<rect x="34.0238" y="34.3275" width="29.4762" height="29.4762" rx="14.7381" stroke="white" stroke-opacity="0.15"/>
<path d="M42.3312 52.9218C42.4477 52.803 42.6056 52.7363 42.7702 52.7363H57.9603C58.2371 52.7363 58.3756 53.0778 58.1798 53.2774L55.1783 56.3381C55.0618 56.4569 54.904 56.5235 54.7393 56.5235H39.5492C39.2725 56.5235 39.134 56.1821 39.3297 55.9825L42.3312 52.9218Z" fill="url(#paint0_linear_24390_854)"/>
<path d="M42.3312 41.4873C42.4477 41.3686 42.6056 41.3019 42.7702 41.3019H57.9603C58.2371 41.3019 58.3756 41.6434 58.1798 41.843L55.1783 44.9036C55.0618 45.0224 54.904 45.0891 54.7393 45.0891H39.5492C39.2725 45.0891 39.134 44.7476 39.3297 44.548L42.3312 41.4873Z" fill="url(#paint1_linear_24390_854)"/>
<path d="M55.1783 47.1682C55.0618 47.0495 54.904 46.9828 54.7393 46.9828H39.5492C39.2725 46.9828 39.134 47.3242 39.3297 47.5238L42.3312 50.5845C42.4477 50.7033 42.6056 50.77 42.7702 50.77H57.9603C58.2371 50.77 58.3756 50.4285 58.1798 50.2289L55.1783 47.1682Z" fill="url(#paint2_linear_24390_854)"/>
</g>
<defs>
<linearGradient id="paint0_linear_24390_854" x1="56.5085" y1="39.4833" x2="45.6681" y2="59.8427" gradientUnits="userSpaceOnUse">
<stop stop-color="#00FFA3"/>
<stop offset="1" stop-color="#DC1FFF"/>
</linearGradient>
<linearGradient id="paint1_linear_24390_854" x1="51.9121" y1="37.0266" x2="41.0717" y2="57.386" gradientUnits="userSpaceOnUse">
<stop stop-color="#00FFA3"/>
<stop offset="1" stop-color="#DC1FFF"/>
</linearGradient>
<linearGradient id="paint2_linear_24390_854" x1="54.1957" y1="38.2474" x2="43.3553" y2="58.6068" gradientUnits="userSpaceOnUse">
<stop stop-color="#00FFA3"/>
<stop offset="1" stop-color="#DC1FFF"/>
</linearGradient>
<clipPath id="clip0_24390_854">
<rect y="0.303711" width="30.4762" height="30.4762" rx="15.2381" fill="white"/>
</clipPath>
<clipPath id="clip1_24390_854">
<rect x="33.5238" y="0.303711" width="30.4762" height="30.4762" rx="15.2381" fill="white"/>
</clipPath>
<clipPath id="clip2_24390_854">
<rect x="33.5238" y="0.303711" width="30.4762" height="30.4762" rx="15.2381" fill="white"/>
</clipPath>
<clipPath id="clip3_24390_854">
<rect y="33.8275" width="30.4762" height="30.4762" rx="15.2381" fill="white"/>
</clipPath>
<clipPath id="clip4_24390_854">
<rect x="33.5238" y="33.8275" width="30.4762" height="30.4762" rx="15.2381" fill="white"/>
</clipPath>
</defs>
</svg>

<svg xmlns="http://www.w3.org/2000/svg" width="64" height="65" fill="none" viewBox="0 0 64 65"><g clip-path="url(#multiple_svg-a)"><rect width="30.476" height="30.476" y=".304" fill="#F7931A" rx="15.238"/><rect width="29.476" height="29.476" x=".5" y=".804" stroke="#070B14" stroke-opacity=".15" rx="14.738"/><path fill="#fff" d="M21.956 13.37c.303-2.027-1.24-3.117-3.352-3.844l.685-2.747-1.672-.417-.667 2.675c-.44-.11-.891-.213-1.34-.316l.672-2.692-1.671-.417-.686 2.746a55 55 0 0 1-1.067-.25l.002-.01-2.306-.575-.445 1.786s1.24.284 1.214.302c.678.169.8.617.78.972l-1.877 7.526c-.083.205-.293.514-.766.397.017.024-1.215-.303-1.215-.303l-.83 1.914 2.175.542c.405.102.802.208 1.193.308l-.692 2.778 1.67.417.685-2.75q.684.186 1.333.347l-.683 2.736 1.672.416.692-2.773c2.851.54 4.995.322 5.898-2.257.727-2.076-.037-3.274-1.537-4.055 1.093-.252 1.916-.97 2.135-2.455m-3.82 5.358c-.518 2.076-4.014.954-5.147.672l.918-3.68c1.133.283 4.768.842 4.228 3.008m.516-5.387c-.471 1.888-3.38.929-4.325.694l.833-3.339c.944.235 3.983.675 3.492 2.645"/></g><g clip-path="url(#multiple_svg-b)"><g clip-path="url(#multiple_svg-c)"><rect width="30.476" height="30.476" x="33.524" y=".304" fill="#fff" rx="15.238"/><path fill="#345D9D" d="M48.762.304A15.238 15.238 0 1 0 64 15.542 15.194 15.194 0 0 0 48.85.304zm.258 15.754-1.586 5.35h8.486a.426.426 0 0 1 .442.413v.14l-.737 2.547a.55.55 0 0 1-.554.405H42.084l2.177-7.416-2.436.738.554-1.697 2.435-.738 3.062-10.405a.56.56 0 0 1 .554-.405h3.284a.427.427 0 0 1 .442.413v.14l-2.582 8.781 2.435-.738-.517 1.771z"/></g><rect width="29.476" height="29.476" x="34.024" y=".804" stroke="#070B14" stroke-opacity=".15" rx="14.738"/></g><g clip-path="url(#multiple_svg-d)"><rect width="30.476" height="30.476" y="33.828" fill="#627EEA" rx="15.238"/><rect width="29.476" height="29.476" x=".5" y="34.328" stroke="#070B14" stroke-opacity=".15" rx="14.738"/><path fill="#fff" fill-opacity=".602" d="M15.712 37.637v8.448l7.14 3.19z"/><path fill="#fff" d="M15.713 37.637 8.572 49.275l7.14-3.19z"/><path fill="#fff" fill-opacity=".602" d="M15.712 54.75v5.74l7.145-9.885z"/><path fill="#fff" d="M15.713 60.49v-5.742l-7.141-4.143z"/><path fill="#fff" fill-opacity=".2" d="m15.712 53.421 7.14-4.146-7.14-3.188z"/><path fill="#fff" fill-opacity=".602" d="m8.572 49.275 7.14 4.146v-7.334z"/></g><g clip-path="url(#multiple_svg-e)"><rect width="30.476" height="30.476" x="33.524" y="33.828" fill="#000" rx="15.238"/><rect width="29.476" height="29.476" x="34.024" y="34.328" stroke="#fff" stroke-opacity=".15" rx="14.738"/><path fill="url(#multiple_svg-f)" d="M42.331 52.922a.62.62 0 0 1 .44-.186h15.19c.276 0 .415.342.219.541l-3.002 3.061a.62.62 0 0 1-.439.185H39.55c-.276 0-.415-.34-.22-.54z"/><path fill="url(#multiple_svg-g)" d="M42.331 41.487a.62.62 0 0 1 .44-.185h15.19c.276 0 .415.341.219.541l-3.002 3.06a.62.62 0 0 1-.439.186H39.55c-.276 0-.415-.341-.22-.541z"/><path fill="url(#multiple_svg-h)" d="M55.178 47.168a.62.62 0 0 0-.439-.185H39.55c-.276 0-.415.341-.22.54l3.002 3.061a.62.62 0 0 0 .44.186h15.19c.276 0 .415-.342.219-.541z"/></g><defs><clipPath id="multiple_svg-a"><rect width="30.476" height="30.476" y=".304" fill="#fff" rx="15.238"/></clipPath><clipPath id="multiple_svg-b"><rect width="30.476" height="30.476" x="33.524" y=".304" fill="#fff" rx="15.238"/></clipPath><clipPath id="multiple_svg-c"><rect width="30.476" height="30.476" x="33.524" y=".304" fill="#fff" rx="15.238"/></clipPath><clipPath id="multiple_svg-d"><rect width="30.476" height="30.476" y="33.828" fill="#fff" rx="15.238"/></clipPath><clipPath id="multiple_svg-e"><rect width="30.476" height="30.476" x="33.524" y="33.828" fill="#fff" rx="15.238"/></clipPath><linearGradient id="multiple_svg-f" x1="56.508" x2="45.668" y1="39.483" y2="59.843" gradientUnits="userSpaceOnUse"><stop stop-color="#00FFA3"/><stop offset="1" stop-color="#DC1FFF"/></linearGradient><linearGradient id="multiple_svg-g" x1="51.912" x2="41.072" y1="37.027" y2="57.386" gradientUnits="userSpaceOnUse"><stop stop-color="#00FFA3"/><stop offset="1" stop-color="#DC1FFF"/></linearGradient><linearGradient id="multiple_svg-h" x1="54.196" x2="43.355" y1="38.247" y2="58.607" gradientUnits="userSpaceOnUse"><stop stop-color="#00FFA3"/><stop offset="1" stop-color="#DC1FFF"/></linearGradient></defs></svg>
